X: 012
Q: "Slowish"
M: 9/8
L: 1/8
K: Gm
c |\
(B/c/).d.B (G>AB/c/) dBG | F2f cAF ABc | (B/c/).d.B (G>AB/c/) dBG | DGB AG^F G2 :|
(B>cd/e/) fdB bfd | cfd cdB ABc | (B>cd/e/) fdB bfd | ced cBA B2c |
(B>cd/e/) fdB bfd | ced cdB ABc | dfb fdB ecA | dBG cA^F G2 |]


